icons/directus-filled.svg

<svg width="256" height="256" viewBox="0 0 256 256" fill="none" xmlns="http://www.w3.org/2000/svg">
<rect width="256" height="256" rx="60" fill="#945EF5" />
<g filter="url(#shadow)">
    <path fill-rule="evenodd" clip-rule="evenodd" d="M190.925 144.955C189.95 144.711 189.138 144.468 188.407 144.143C187.867 143.903 187.415 143.618 187.019 143.289C186.757 143.071 186.644 142.727 186.676 142.386C187.068 138.307 186.637 134.708 187.026 130.662C188.651 114.258 198.966 119.455 208.224 116.776C213.541 115.278 218.858 112.331 220.801 106.533C221.119 105.584 220.839 104.553 220.178 103.801C214.113 96.9057 207.398 90.813 200.102 85.5917C175.643 68.1798 143.856 60.9495 114.664 65.1789C113.558 65.339 112.978 66.5641 113.583 67.5038C117.28 73.2565 122.158 77.9642 127.751 81.4292C128.768 82.0589 128.359 83.4192 127.192 83.1575C124.449 82.5427 120.924 81.3434 117.609 79.0042C117.29 78.779 116.878 78.722 116.515 78.8669C115.033 79.4578 112.893 80.3099 111.125 81.0732C110.107 81.5127 109.9 82.8252 110.737 83.5515C125.4 96.2594 146.73 98.1911 163.432 88.0216C164.45 87.4021 166.079 88.6752 165.751 89.8203C165.226 91.6549 164.613 94.1765 163.96 97.6105C159.818 118.562 147.879 116.938 133.097 111.659C103.56 100.956 86.8032 110.096 71.9053 92.0022C70.8703 90.7448 69.0506 90.309 67.8192 91.3748C64.7438 94.0371 62.9236 97.9231 62.9236 102.077C62.9236 106.997 65.4636 111.211 69.2283 113.734C69.6993 114.049 70.325 113.916 70.6763 113.471C71.5937 112.31 72.3442 111.541 73.2787 111.054C74.3014 110.521 74.8004 111.984 73.9368 112.749C70.7726 115.55 69.8646 118.887 67.7969 125.465C64.548 135.778 65.9287 146.335 50.7407 149.096C42.7001 149.503 42.8626 154.944 39.9386 163.064C36.5452 172.866 32.1019 177.208 23.878 185.773C22.7535 186.944 22.6569 188.817 23.893 189.871C27.1779 192.67 30.5657 192.824 34.0097 191.406C42.5376 187.833 49.1164 176.789 55.289 169.642C62.1928 161.684 78.7613 165.095 91.2691 157.299C98.0146 153.163 102.068 147.88 100.772 139.966C100.563 138.692 102.021 137.926 102.55 139.104C103.555 141.341 104.213 143.727 104.487 146.193C104.558 146.839 105.136 147.318 105.786 147.281C119.318 146.52 136.818 161.444 153.171 165.482C154.166 165.728 154.873 164.579 154.311 163.723C153.276 162.147 152.397 160.512 151.696 158.842C150.973 157.106 150.425 155.422 150.037 153.797C149.734 152.526 151.591 152.184 152.226 153.327C156.42 160.886 164.802 167.984 176.468 168.83C180.447 169.155 184.833 168.668 189.382 167.287C194.823 165.663 199.859 163.552 205.869 164.689C210.336 165.501 214.478 167.774 217.077 171.591C220.724 176.909 228.423 178.318 232.526 172.76C233.084 172.004 233.131 170.993 232.762 170.128C223.727 148.954 200.786 147.499 190.925 144.955Z" fill="white"/>
</g>
<filter id="shadow" x="-37" y="16" width="330" height="248.285" filterUnits="userSpaceOnUse" color-interpolation-filters="sRGB">
    <feDropShadow dx="0" dy="4" stdDeviation="4" flood-color="rgba(0, 0, 0, 0.25)"/>
</filter>
</svg>

<svg xmlns="http://www.w3.org/2000/svg" width="256" height="256" fill="none"><rect width="256" height="256" fill="#945EF5" rx="60"/><g filter="url(#shadow)"><path fill="#fff" fill-rule="evenodd" d="M190.925 144.955c-.975-.244-1.787-.487-2.518-.812a6 6 0 0 1-1.388-.854c-.262-.218-.375-.562-.343-.903.392-4.079-.039-7.678.35-11.724 1.625-16.404 11.94-11.207 21.198-13.886 5.317-1.498 10.634-4.445 12.577-10.243.318-.949.038-1.98-.623-2.732-6.065-6.895-12.78-12.988-20.076-18.21-24.459-17.411-56.246-24.641-85.438-20.412-1.106.16-1.686 1.385-1.081 2.325a45 45 0 0 0 14.168 13.925c1.017.63.608 1.99-.559 1.728-2.743-.614-6.268-1.814-9.583-4.153a1.16 1.16 0 0 0-1.094-.137c-1.482.59-3.622 1.443-5.39 2.206a1.47 1.47 0 0 0-.388 2.479c14.663 12.707 35.993 14.64 52.695 4.47 1.018-.62 2.647.653 2.319 1.798-.525 1.835-1.138 4.357-1.791 7.79-4.142 20.952-16.081 19.328-30.863 14.049-29.537-10.703-46.294-1.563-61.192-19.657-1.035-1.257-2.854-1.693-4.086-.627a14.15 14.15 0 0 0-4.895 10.702c0 4.92 2.54 9.134 6.304 11.657.471.315 1.097.182 1.448-.263.918-1.161 1.668-1.93 2.603-2.417 1.022-.533 1.521.93.658 1.695-3.164 2.801-4.072 6.138-6.14 12.716-3.249 10.313-1.868 20.87-17.056 23.631-8.04.407-7.878 5.848-10.802 13.968-3.394 9.802-7.837 14.144-16.061 22.709-1.125 1.171-1.221 3.044.015 4.098 3.285 2.799 6.673 2.953 10.117 1.535 8.528-3.573 15.106-14.617 21.279-21.764 6.904-7.958 23.472-4.547 35.98-12.343 6.746-4.136 10.799-9.419 9.503-17.333-.209-1.274 1.249-2.04 1.778-.862a23.7 23.7 0 0 1 1.937 7.089 1.237 1.237 0 0 0 1.299 1.088c13.532-.761 31.032 14.163 47.385 18.201.995.246 1.702-.903 1.14-1.759a30 30 0 0 1-2.615-4.881 33 33 0 0 1-1.659-5.045c-.303-1.271 1.554-1.613 2.189-.47 4.194 7.559 12.576 14.657 24.242 15.503 3.979.325 8.365-.162 12.914-1.543 5.441-1.624 10.477-3.735 16.487-2.598 4.467.812 8.609 3.085 11.208 6.902 3.647 5.318 11.346 6.727 15.449 1.169.558-.756.605-1.767.236-2.632-9.035-21.174-31.976-22.629-41.837-25.173" clip-rule="evenodd"/></g><filter id="shadow" width="330" height="248.285" x="-37" y="16" color-interpolation-filters="sRGB" filterUnits="userSpaceOnUse"><feDropShadow dx="0" dy="4" flood-color="rgba(0, 0, 0, 0.25)" stdDeviation="4"/></filter></svg>
